public/images/case-studies/speakinc/feature-icon3.svg

<svg width="72" height="72" viewBox="0 0 72 72" fill="none" xmlns="http://www.w3.org/2000/svg">
<path d="M69.75 28.125C66.4691 28.1211 63.3238 26.8161 61.0038 24.4962C58.6839 22.1762 57.3789 19.0309 57.375 15.75C57.375 15.4516 57.2565 15.1655 57.0455 14.9545C56.8345 14.7435 56.5484 14.625 56.25 14.625C55.9516 14.625 55.6655 14.7435 55.4545 14.9545C55.2435 15.1655 55.125 15.4516 55.125 15.75C55.1211 19.0309 53.8161 22.1762 51.4962 24.4962C49.1762 26.8161 46.0309 28.1211 42.75 28.125C42.4516 28.125 42.1655 28.2435 41.9545 28.4545C41.7435 28.6655 41.625 28.9516 41.625 29.25C41.625 29.5484 41.7435 29.8345 41.9545 30.0455C42.1655 30.2565 42.4516 30.375 42.75 30.375C46.0309 30.3789 49.1762 31.6839 51.4962 34.0038C53.8161 36.3238 55.1211 39.4691 55.125 42.75C55.125 43.0484 55.2435 43.3345 55.4545 43.5455C55.6655 43.7565 55.9516 43.875 56.25 43.875C56.5484 43.875 56.8345 43.7565 57.0455 43.5455C57.2565 43.3345 57.375 43.0484 57.375 42.75C57.3789 39.4691 58.6839 36.3238 61.0038 34.0038C63.3238 31.6839 66.4691 30.3789 69.75 30.375C70.0484 30.375 70.3345 30.2565 70.5455 30.0455C70.7565 29.8345 70.875 29.5484 70.875 29.25C70.875 28.9516 70.7565 28.6655 70.5455 28.4545C70.3345 28.2435 70.0484 28.125 69.75 28.125Z" fill="#EAEAEA"/>
<path d="M42.75 55.125C39.4691 55.1211 36.3238 53.8161 34.0038 51.4962C31.6839 49.1762 30.3789 46.0309 30.375 42.75C30.375 42.4516 30.2565 42.1655 30.0455 41.9545C29.8345 41.7435 29.5484 41.625 29.25 41.625C28.9516 41.625 28.6655 41.7435 28.4545 41.9545C28.2435 42.1655 28.125 42.4516 28.125 42.75C28.1211 46.0309 26.8161 49.1762 24.4962 51.4962C22.1762 53.8161 19.0309 55.1211 15.75 55.125C15.4516 55.125 15.1655 55.2435 14.9545 55.4545C14.7435 55.6655 14.625 55.9516 14.625 56.25C14.625 56.5484 14.7435 56.8345 14.9545 57.0455C15.1655 57.2565 15.4516 57.375 15.75 57.375C19.0309 57.3789 22.1762 58.6839 24.4962 61.0038C26.8161 63.3238 28.1211 66.4691 28.125 69.75C28.125 70.0484 28.2435 70.3345 28.4545 70.5455C28.6655 70.7565 28.9516 70.875 29.25 70.875C29.5484 70.875 29.8345 70.7565 30.0455 70.5455C30.2565 70.3345 30.375 70.0484 30.375 69.75C30.3789 66.4691 31.6839 63.3238 34.0038 61.0038C36.3238 58.6839 39.4691 57.3789 42.75 57.375C43.0484 57.375 43.3345 57.2565 43.5455 57.0455C43.7565 56.8345 43.875 56.5484 43.875 56.25C43.875 55.9516 43.7565 55.6655 43.5455 55.4545C43.3345 55.2435 43.0484 55.125 42.75 55.125Z" fill="#EAEAEA"/>
<path d="M69.75 60.75C67.9603 60.7482 66.2445 60.0365 64.979 58.771C63.7135 57.5055 63.0018 55.7897 63 54C63 53.7016 62.8815 53.4155 62.6705 53.2045C62.4595 52.9935 62.1734 52.875 61.875 52.875C61.5766 52.875 61.2905 52.9935 61.0795 53.2045C60.8685 53.4155 60.75 53.7016 60.75 54C60.7482 55.7897 60.0365 57.5055 58.771 58.771C57.5055 60.0365 55.7897 60.7482 54 60.75C53.7016 60.75 53.4155 60.8685 53.2045 61.0795C52.9935 61.2905 52.875 61.5766 52.875 61.875C52.875 62.1734 52.9935 62.4595 53.2045 62.6705C53.4155 62.8815 53.7016 63 54 63C55.7897 63.0018 57.5055 63.7135 58.771 64.979C60.0365 66.2445 60.7482 67.9603 60.75 69.75C60.75 70.0484 60.8685 70.3345 61.0795 70.5455C61.2905 70.7565 61.5766 70.875 61.875 70.875C62.1734 70.875 62.4595 70.7565 62.6705 70.5455C62.8815 70.3345 63 70.0484 63 69.75C63.0018 67.9603 63.7135 66.2445 64.979 64.979C66.2445 63.7135 67.9603 63.0018 69.75 63C70.0484 63 70.3345 62.8815 70.5455 62.6705C70.7565 62.4595 70.875 62.1734 70.875 61.875C70.875 61.5766 70.7565 61.2905 70.5455 61.0795C70.3345 60.8685 70.0484 60.75 69.75 60.75Z" fill="#EAEAEA"/>
<path d="M52.3192 23.7285C46.1963 17.6187 37.8998 14.1874 29.25 14.1874C20.6002 14.1874 12.3036 17.6187 6.18073 23.7285L1.45573 28.4535C1.24482 28.6645 1.12634 28.9506 1.12634 29.2489C1.12634 29.5472 1.24482 29.8333 1.45573 30.0443L6.18073 34.7693C12.3036 40.879 20.6002 44.3104 29.25 44.3104C37.8998 44.3104 46.1963 40.879 52.3192 34.7693L57.0442 30.0443C57.2551 29.8333 57.3736 29.5472 57.3736 29.2489C57.3736 28.9506 57.2551 28.6645 57.0442 28.4535L52.3192 23.7285ZM50.7285 33.1785C45.0275 38.8665 37.3032 42.0609 29.25 42.0609C21.1968 42.0609 13.4724 38.8665 7.77148 33.1785L3.84073 29.25L7.77148 25.3193C13.4724 19.6313 21.1968 16.4369 29.25 16.4369C37.3032 16.4369 45.0275 19.6313 50.7285 25.3193L54.6592 29.25L50.7285 33.1785Z" fill="#FF6B00"/>
<path d="M29.25 18C27.025 18 24.8499 18.6598 22.9998 19.896C21.1498 21.1321 19.7078 22.8891 18.8564 24.9448C18.0049 27.0005 17.7821 29.2625 18.2162 31.4448C18.6503 33.627 19.7217 35.6316 21.2951 37.2049C22.8684 38.7783 24.873 39.8497 27.0552 40.2838C29.2375 40.7179 31.4995 40.4951 33.5552 39.6436C35.6109 38.7922 37.3679 37.3502 38.604 35.5002C39.8402 33.6501 40.5 31.475 40.5 29.25C40.4967 26.2673 39.3104 23.4077 37.2013 21.2987C35.0923 19.1896 32.2327 18.0033 29.25 18ZM29.25 38.25C27.47 38.25 25.7299 37.7222 24.2499 36.7332C22.7698 35.7443 21.6163 34.3387 20.9351 32.6941C20.2539 31.0496 20.0757 29.24 20.4229 27.4942C20.7702 25.7484 21.6274 24.1447 22.886 22.886C24.1447 21.6274 25.7484 20.7702 27.4942 20.4229C29.24 20.0757 31.0496 20.2539 32.6942 20.9351C34.3387 21.6163 35.7443 22.7698 36.7332 24.2499C37.7222 25.7299 38.25 27.47 38.25 29.25C38.2473 31.6361 37.2982 33.9237 35.611 35.611C33.9238 37.2982 31.6361 38.2473 29.25 38.25Z" fill="#FF6B00"/>
<path d="M29.25 23.625C28.1375 23.625 27.0499 23.9549 26.1249 24.573C25.1999 25.1911 24.4789 26.0696 24.0532 27.0974C23.6274 28.1252 23.516 29.2562 23.7331 30.3474C23.9501 31.4385 24.4859 32.4408 25.2725 33.2275C26.0592 34.0141 27.0615 34.5499 28.1526 34.7669C29.2438 34.984 30.3748 34.8726 31.4026 34.4468C32.4304 34.0211 33.3089 33.3001 33.927 32.3751C34.5451 31.4501 34.875 30.3625 34.875 29.25C34.8732 27.7587 34.28 26.329 33.2255 25.2745C32.171 24.22 30.7413 23.6268 29.25 23.625ZM29.25 32.625C28.5825 32.625 27.93 32.4271 27.375 32.0562C26.8199 31.6854 26.3874 31.1583 26.1319 30.5416C25.8765 29.9249 25.8096 29.2463 25.9399 28.5916C26.0701 27.9369 26.3915 27.3355 26.8635 26.8635C27.3355 26.3915 27.9369 26.0701 28.5916 25.9398C29.2463 25.8096 29.9249 25.8765 30.5416 26.1319C31.1583 26.3874 31.6854 26.8199 32.0562 27.375C32.4271 27.93 32.625 28.5825 32.625 29.25C32.625 30.1451 32.2694 31.0035 31.6365 31.6365C31.0036 32.2694 30.1451 32.625 29.25 32.625Z" fill="#FF6B00"/>
<path d="M2.25 16.875C2.54837 16.875 2.83452 16.7565 3.0455 16.5455C3.25647 16.3345 3.375 16.0484 3.375 15.75V3.375H15.75C16.0484 3.375 16.3345 3.25647 16.5455 3.0455C16.7565 2.83452 16.875 2.54837 16.875 2.25C16.875 1.95163 16.7565 1.66548 16.5455 1.4545C16.3345 1.24353 16.0484 1.125 15.75 1.125H2.25C1.95163 1.125 1.66548 1.24353 1.4545 1.4545C1.24353 1.66548 1.125 1.95163 1.125 2.25V15.75C1.125 16.0484 1.24353 16.3345 1.4545 16.5455C1.66548 16.7565 1.95163 16.875 2.25 16.875Z" fill="#FF6B00"/>
<path d="M56.25 1.125H42.75C42.4516 1.125 42.1655 1.24353 41.9545 1.4545C41.7435 1.66548 41.625 1.95163 41.625 2.25C41.625 2.54837 41.7435 2.83452 41.9545 3.0455C42.1655 3.25647 42.4516 3.375 42.75 3.375H55.125V15.75C55.125 16.0484 55.2435 16.3345 55.4545 16.5455C55.6655 16.7565 55.9516 16.875 56.25 16.875C56.5484 16.875 56.8345 16.7565 57.0455 16.5455C57.2565 16.3345 57.375 16.0484 57.375 15.75V2.25C57.375 1.95163 57.2565 1.66548 57.0455 1.4545C56.8345 1.24353 56.5484 1.125 56.25 1.125Z" fill="#FF6B00"/>
<path d="M15.75 55.125H3.375V42.75C3.375 42.4516 3.25647 42.1655 3.0455 41.9545C2.83452 41.7435 2.54837 41.625 2.25 41.625C1.95163 41.625 1.66548 41.7435 1.4545 41.9545C1.24353 42.1655 1.125 42.4516 1.125 42.75V56.25C1.125 56.5484 1.24353 56.8345 1.4545 57.0455C1.66548 57.2565 1.95163 57.375 2.25 57.375H15.75C16.0484 57.375 16.3345 57.2565 16.5455 57.0455C16.7565 56.8345 16.875 56.5484 16.875 56.25C16.875 55.9516 16.7565 55.6655 16.5455 55.4545C16.3345 55.2435 16.0484 55.125 15.75 55.125Z" fill="#FF6B00"/>
<path d="M56.25 41.625C55.9516 41.625 55.6655 41.7435 55.4545 41.9545C55.2435 42.1655 55.125 42.4516 55.125 42.75V55.125H42.75C42.4516 55.125 42.1655 55.2435 41.9545 55.4545C41.7435 55.6655 41.625 55.9516 41.625 56.25C41.625 56.5484 41.7435 56.8345 41.9545 57.0455C42.1655 57.2565 42.4516 57.375 42.75 57.375H56.25C56.5484 57.375 56.8345 57.2565 57.0455 57.0455C57.2565 56.8345 57.375 56.5484 57.375 56.25V42.75C57.375 42.4516 57.2565 42.1655 57.0455 41.9545C56.8345 41.7435 56.5484 41.625 56.25 41.625Z" fill="#FF6B00"/>
</svg>

<svg xmlns="http://www.w3.org/2000/svg" width="72" height="72" fill="none" xmlns:v="https://vecta.io/nano"><path d="M69.75 28.125A12.39 12.39 0 0 1 57.375 15.75c0-.298-.118-.585-.33-.796s-.497-.329-.795-.329-.584.118-.795.329-.33.497-.33.796A12.39 12.39 0 0 1 42.75 28.125a1.13 1.13 0 0 0-.795.329c-.211.21-.33.497-.33.796s.118.584.33.796a1.12 1.12 0 0 0 .795.329A12.39 12.39 0 0 1 55.125 42.75a1.12 1.12 0 0 0 .33.795c.212.211.497.33.795.33a1.12 1.12 0 0 0 .795-.33c.211-.212.33-.497.33-.795A12.39 12.39 0 0 1 69.75 30.375a1.13 1.13 0 0 0 .796-.329c.211-.21.329-.497.329-.796s-.118-.584-.329-.796a1.12 1.12 0 0 0-.796-.329zm-27 27A12.39 12.39 0 0 1 30.375 42.75a1.13 1.13 0 0 0-.329-.795c-.21-.211-.497-.33-.796-.33s-.584.118-.796.33a1.12 1.12 0 0 0-.329.795A12.39 12.39 0 0 1 15.75 55.125c-.298 0-.585.118-.796.33s-.329.497-.329.795.118.584.329.795.497.33.796.33A12.39 12.39 0 0 1 28.125 69.75a1.13 1.13 0 0 0 .329.796c.21.211.497.329.796.329s.584-.118.796-.329a1.12 1.12 0 0 0 .329-.796A12.39 12.39 0 0 1 42.75 57.375a1.12 1.12 0 0 0 .795-.33c.211-.212.33-.497.33-.795a1.12 1.12 0 0 0-.33-.795c-.212-.211-.497-.33-.795-.33zm27 5.625a6.76 6.76 0 0 1-4.771-1.979C63.713 57.506 63.002 55.79 63 54a1.12 1.12 0 0 0-.33-.795c-.212-.211-.497-.33-.795-.33a1.12 1.12 0 0 0-.795.33c-.211.212-.33.497-.33.795a6.76 6.76 0 0 1-1.979 4.771C57.506 60.037 55.79 60.748 54 60.75a1.12 1.12 0 0 0-.795.33c-.211.212-.33.497-.33.795a1.12 1.12 0 0 0 .33.795c.212.211.497.33.795.33a6.76 6.76 0 0 1 4.771 1.979c1.266 1.265 1.977 2.981 1.979 4.771 0 .298.118.585.33.796s.497.329.795.329.584-.118.795-.329.33-.497.33-.796a6.76 6.76 0 0 1 1.979-4.771c1.265-1.266 2.981-1.977 4.771-1.979.298 0 .585-.118.796-.33s.329-.497.329-.795-.118-.584-.329-.795-.497-.33-.796-.33z" fill="#eaeaea"/><path d="M52.319 23.729a32.66 32.66 0 0 0-46.138 0l-4.725 4.725c-.211.211-.329.497-.329.795s.118.584.329.795l4.725 4.725a32.66 32.66 0 0 0 46.138 0l4.725-4.725c.211-.211.329-.497.329-.795a1.13 1.13 0 0 0-.329-.795l-4.725-4.725zm-1.591 9.45a30.41 30.41 0 0 1-42.957 0l-3.93-3.929 3.931-3.931a30.41 30.41 0 0 1 42.957 0l3.931 3.931-3.931 3.928zM29.25 18a11.25 11.25 0 0 0-7.955 19.205A11.25 11.25 0 0 0 40.5 29.25 11.26 11.26 0 0 0 29.25 18zm0 20.25a9 9 0 0 1-6.364-15.364A9 9 0 0 1 38.25 29.25a9.01 9.01 0 0 1-9 9zm0-14.625c-1.113 0-2.2.33-3.125.948a5.63 5.63 0 0 0-2.072 2.524c-.426 1.027-.537 2.159-.32 3.25a5.63 5.63 0 0 0 1.539 2.88 5.62 5.62 0 0 0 2.88 1.539c1.091.217 2.222.106 3.25-.32s1.906-1.147 2.524-2.072.948-2.013.948-3.125a5.63 5.63 0 0 0-5.625-5.625zm0 9c-.668 0-1.32-.198-1.875-.569a3.37 3.37 0 0 1-1.243-1.515 3.38 3.38 0 0 1-.192-1.95c.13-.655.452-1.256.924-1.728a3.38 3.38 0 0 1 1.728-.924 3.37 3.37 0 0 1 3.465 1.435c.371.555.569 1.207.569 1.875a3.38 3.38 0 0 1-.988 2.387 3.37 3.37 0 0 1-2.387.988zm-27-15.75a1.13 1.13 0 0 0 .796-.329c.211-.21.329-.497.329-.796V3.375H15.75a1.13 1.13 0 0 0 .796-.329 1.12 1.12 0 0 0 .329-.796 1.13 1.13 0 0 0-.329-.796c-.21-.211-.497-.329-.796-.329H2.25a1.13 1.13 0 0 0-.796.329c-.211.21-.329.497-.329.796v13.5a1.13 1.13 0 0 0 .329.796 1.12 1.12 0 0 0 .796.329zm54-15.75h-13.5a1.13 1.13 0 0 0-.795.329c-.211.21-.33.497-.33.796a1.12 1.12 0 0 0 .33.796c.212.211.497.329.795.329h12.375V15.75c0 .298.118.584.33.796a1.12 1.12 0 0 0 .795.329 1.13 1.13 0 0 0 .795-.329c.211-.21.33-.497.33-.796V2.25c0-.298-.118-.585-.33-.796s-.497-.329-.795-.329zm-40.5 54H3.375V42.75a1.13 1.13 0 0 0-.329-.795c-.21-.211-.497-.33-.796-.33a1.12 1.12 0 0 0-.796.33c-.211.212-.329.497-.329.795v13.5a1.13 1.13 0 0 0 .329.795c.21.211.497.33.796.33h13.5c.298 0 .584-.118.796-.33a1.12 1.12 0 0 0 .329-.795 1.13 1.13 0 0 0-.329-.795c-.21-.211-.497-.33-.796-.33zm40.5-13.5a1.12 1.12 0 0 0-.795.33c-.211.212-.33.497-.33.795v12.375H42.75a1.12 1.12 0 0 0-.795.33c-.211.212-.33.497-.33.795a1.12 1.12 0 0 0 .33.795c.212.211.497.33.795.33h13.5a1.12 1.12 0 0 0 .795-.33c.211-.212.33-.497.33-.795v-13.5a1.12 1.12 0 0 0-.33-.795c-.212-.211-.497-.33-.795-.33z" fill="#ff6b00"/></svg>
